packages/ui-icons/svg/Line/zoom-in.svg

<svg viewBox="0 0 1920 1920" version="1.1" xmlns="http://www.w3.org/2000/svg">
    <path d="M854.396582,1594.87362 C446.108936,1594.87362 113.919544,1262.68423 113.919544,854.396582 C113.919544,446.108936 446.108936,113.919544 854.396582,113.919544 C1262.68423,113.919544 1594.87362,446.108936 1594.87362,854.396582 C1594.87362,1262.68423 1262.68423,1594.87362 854.396582,1594.87362 L854.396582,1594.87362 Z M1920,1839.34496 L1496.67497,1416.13386 C1628.25205,1265.64614 1708.79316,1069.5906 1708.79316,854.396582 C1708.79316,383.225347 1325.56782,0 854.396582,0 C383.225347,0 0,383.225347 0,854.396582 C0,1325.56782 383.225347,1708.79316 854.396582,1708.79316 C1069.47668,1708.79316 1265.76006,1628.25205 1416.13386,1496.67497 L1839.34496,1920 L1920,1839.34496 Z M911.356355,455.678177 L797.43681,455.678177 L797.43681,797.43681 L455.678177,797.43681 L455.678177,911.356355 L797.43681,911.356355 L797.43681,1253.11499 L911.356355,1253.11499 L911.356355,911.356355 L1253.11499,911.356355 L1253.11499,797.43681 L911.356355,797.43681 L911.356355,455.678177 Z" stroke="none" stroke-width="1" fill-rule="evenodd"/>
</svg>

<svg viewBox="0 0 1920 1920" xmlns="http://www.w3.org/2000/svg">
    <path d="M854.397 1594.874c-408.288 0-740.477-332.19-740.477-740.477 0-408.288 332.189-740.477 740.477-740.477 408.287 0 740.477 332.189 740.477 740.477 0 408.287-332.19 740.477-740.477 740.477ZM1920 1839.345l-423.325-423.211c131.577-150.488 212.118-346.543 212.118-561.737C1708.793 383.225 1325.568 0 854.397 0 383.225 0 0 383.225 0 854.397c0 471.17 383.225 854.396 854.397 854.396 215.08 0 411.363-80.54 561.737-212.118L1839.345 1920l80.655-80.655ZM911.356 455.678h-113.92v341.759H455.679v113.92h341.759v341.758h113.92V911.356h341.758v-113.92h-341.76V455.679Z" fill-rule="evenodd"/>
</svg>
